src/lib/packages/icons/src/assets/filled/brain.svg

<svg width="24" height="24" viewBox="0 0 24 24" fill="none" xmlns="http://www.w3.org/2000/svg">
<path d="M20.53 13.6101C20.53 13.6101 21 14.2899 21 15.3899C21 17.2399 19.62 18.76 17.83 18.98C17.41 20.24 16.49 21 15 21C14 21 12.75 20.2301 12.75 18.8701V17C12.75 15.51 14.3 14.6899 14.34 14.6699C14.71 14.4799 14.86 14.0299 14.67 13.6599C14.49 13.2899 14.04 13.1401 13.67 13.3301C13.62 13.3501 13.22 13.56 12.75 13.96V12C12.75 10.51 14.3 9.68992 14.34 9.66992C14.71 9.47992 14.86 9.02991 14.67 8.65991C14.49 8.28991 14.04 8.14008 13.67 8.33008C13.62 8.35008 13.22 8.55996 12.75 8.95996V4.58008C12.75 3.36008 13.55 3 14 3C16.23 3 16.89 5.22998 16.89 5.22998C16.89 5.22998 19 6.00007 19 8.32007C19 8.60007 18.97 8.87012 18.9 9.12012C20.12 9.50012 21 10.65 21 12.01C21 12.61 20.53 13.6101 20.53 13.6101ZM10.33 8.33008C10.38 8.35008 10.78 8.55996 11.25 8.95996V4.58008C11.25 3.36008 10.45 3 10 3C7.77 3 7.10999 5.22998 7.10999 5.22998C7.10999 5.22998 5 6.00007 5 8.32007C5 8.60007 5.02998 8.87012 5.09998 9.12012C3.87998 9.50012 3 10.65 3 12.01C3 12.61 3.46997 13.6101 3.46997 13.6101C3.46997 13.6101 3 14.2899 3 15.3899C3 17.2399 4.38004 18.76 6.17004 18.98C6.59004 20.24 7.51 21 9 21C10 21 11.25 20.2301 11.25 18.8701V17C11.25 15.5 9.68003 14.6799 9.66003 14.6699C9.29003 14.4799 9.14996 14.0299 9.32996 13.6599C9.51996 13.2899 9.96996 13.1401 10.33 13.3301C10.38 13.3501 10.78 13.56 11.25 13.96V12C11.25 10.5 9.68003 9.67992 9.66003 9.66992C9.29003 9.47992 9.14996 9.02991 9.32996 8.65991C9.51996 8.28991 9.96996 8.14008 10.33 8.33008Z" fill="currentColor"/>
</svg>

<svg xmlns="http://www.w3.org/2000/svg" width="24" height="24" fill="none"><path fill="currentColor" d="M20.53 13.61s.47.68.47 1.78c0 1.85-1.38 3.37-3.17 3.59C17.41 20.24 16.49 21 15 21c-1 0-2.25-.77-2.25-2.13V17c0-1.49 1.55-2.31 1.59-2.33a.75.75 0 0 0 .33-1.01.736.736 0 0 0-1-.33c-.05.02-.45.23-.92.63V12c0-1.49 1.55-2.31 1.59-2.33a.75.75 0 0 0 .33-1.01.736.736 0 0 0-1-.33c-.05.02-.45.23-.92.63V4.58c0-1.22.8-1.58 1.25-1.58 2.23 0 2.89 2.23 2.89 2.23S19 6 19 8.32c0 .28-.03.55-.1.8 1.22.38 2.1 1.53 2.1 2.89 0 .6-.47 1.6-.47 1.6Zm-10.2-5.28c.05.02.45.23.92.63V4.58C11.25 3.36 10.45 3 10 3 7.77 3 7.11 5.23 7.11 5.23S5 6 5 8.32c0 .28.03.55.1.8C3.88 9.5 3 10.65 3 12.01c0 .6.47 1.6.47 1.6S3 14.29 3 15.39c0 1.85 1.38 3.37 3.17 3.59C6.59 20.24 7.51 21 9 21c1 0 2.25-.77 2.25-2.13V17c0-1.5-1.57-2.32-1.59-2.33a.759.759 0 0 1-.33-1.01c.19-.37.64-.52 1-.33.05.02.45.23.92.63V12c0-1.5-1.57-2.32-1.59-2.33a.759.759 0 0 1-.33-1.01c.19-.37.64-.52 1-.33Z"/></svg>
